X:1
T:Title
%%score { ( 1 3 ) | 2 }
L:1/8
M:4/4
K:G
V:1 treble nm="Grand Piano"
V:3 treble 
V:2 treble 
V:1
 z4 z2[Q:1/4=104] G>A | B2 B2 G2 [DG]>[DF] | [CE]2 [EG]2 G3 A | B>B B>B [DGd]2 [DGd]2 | %4
 [DFA]6 [B,DG]>[CDA] | [DGB]2 [DGB]2 [B,DG]2 [G,DG]>[G,DF] | [G,CE]2 [CEG]2 [B,DG]3 [CDA] | %7
 [DGB]>[DGB] [CGA]>[B,G] [DGB]2 [CFA]2 |[M:3/4] [B,DG]6 |[M:1/4] B2 |[M:4/4] d>d d>d d2 z z/ G/ | %11
 d6 z2 | z4 z2 d2 | A6 z2 | B2 B2 G2 [DG]>[DF] | [CE]2 [EG]2 G3 A | B>B A>G [DGB]2 [CFA]2 | %17
[M:3/4] [B,DG]6 |] %18
V:2
 z4 z2 [G,B,D]>[G,CD] | [G,DG]2 [G,DG]2 [G,B,D]2[K:bass] [B,,G,]>[B,,G,] | %2
 [C,G,]2 [C,C]2 [G,B,D]3[K:treble] [G,CD] | [G,DG]>[G,DG] [G,DG]>[G,DG][K:bass] B,,2 B,,2 | %4
 D,6 G,>G, | G,2 G,2 G,2 B,,>B,, | C,2 C,2 G,3 G, | G,>G, G,>G, D,2 D,2 |[M:3/4] G,,6 | %9
[M:1/4][K:treble] [G,DG]2 |[M:4/4] [G,B,G]>[G,B,G] [G,B,G]>[G,B,G] [G,B,G]2 [G,DG]>[G,D] | %11
 [G,B,G]2[K:bass] [D,A,]2 [G,B,]2 [G,B,]2 | [G,DG]>[G,DG] [G,DG]>[G,DG] [G,DG]2[K:bass] B,,>B,, | %13
 D,2 A,,2 [D,D]2[K:treble] [G,B,D]>[G,CD] | [G,DG]2 [G,DG]2 [G,B,D]2[K:bass] [B,,G,]>[B,,G,] | %15
 [C,G,]2 [C,C]2 [G,B,D]3[K:treble] [A,CD] | [G,DG]>[G,DG] [G,CG]>[G,B,][K:bass] D,2 D,2 | %17
[M:3/4] G,,6 |] %18
V:3
 x8 | x8 | x8 | x8 | x8 | x8 | x8 | x8 |[M:3/4] x6 |[M:1/4] x2 |[M:4/4] z4 z2 B2 | z2 F2 G2 G2 | %12
 B>B B>B B2 [DG]>[DG] | [DF]2 [^CG]2 F2 G>A | x8 | x8 | x8 |[M:3/4] x6 |] %18

